components/src/assets/interaction/authorization_failed.svg

<svg width="125" height="200" viewBox="0 0 125 200" fill="none" xmlns="http://www.w3.org/2000/svg">
<g clip-path="url(#clip0_3786_79919)">
<circle cx="8.30542" cy="8.30542" r="8.30542" transform="matrix(0.866025 -0.5 0 1 24.9258 54.1677)" fill="white" stroke="black" stroke-width="0.752033"/>
<path d="M24.9253 62.4741C24.9253 64.5996 25.6276 66.3198 27.032 67.1306L25.8333 66.4385C24.4288 65.6276 23.7266 63.9075 23.7266 61.782L24.9253 62.4741Z" fill="white" stroke="black" stroke-width="0.752033"/>
<path d="M24.9253 62.4737C24.9253 57.8868 28.1456 52.3091 32.118 50.0156L30.9193 49.3235C26.9468 51.617 23.7266 57.1947 23.7266 61.7816L24.9253 62.4737Z" fill="white" stroke="black" stroke-width="0.752033"/>
<path d="M37.2067 49.5134C35.8022 48.7026 33.9614 48.9545 32.1207 50.0172L30.9219 49.3251C32.7626 48.2624 34.6034 48.0105 36.0079 48.8213L37.2067 49.5134Z" fill="white" stroke="black" stroke-width="0.752033"/>
<circle cx="8.30542" cy="8.30542" r="8.30542" transform="matrix(0.866025 -0.5 0 1 24.9258 91.1165)" fill="white" stroke="black" stroke-width="0.752033"/>
<path d="M24.9253 99.4228C24.9253 101.548 25.6276 103.268 27.032 104.079L25.8333 103.387C24.4288 102.576 23.7266 100.856 23.7266 98.7307L24.9253 99.4228Z" fill="white" stroke="black" stroke-width="0.752033"/>
<path d="M24.9253 99.4225C24.9253 94.8355 28.1456 89.2578 32.118 86.9643L30.9193 86.2722C26.9468 88.5657 23.7266 94.1434 23.7266 98.7303L24.9253 99.4225Z" fill="white" stroke="black" stroke-width="0.752033"/>
<path d="M37.2067 86.4624C35.8022 85.6515 33.9614 85.9034 32.1207 86.9662L30.9219 86.2741C32.7626 85.2113 34.6034 84.9594 36.0079 85.7703L37.2067 86.4624Z" fill="white" stroke="black" stroke-width="0.752033"/>
<circle cx="8.30542" cy="8.30542" r="8.30542" transform="matrix(0.866025 -0.5 0 1 24.9258 128.065)" fill="white" stroke="black" stroke-width="0.752033"/>
<path d="M24.9253 136.372C24.9253 138.497 25.6276 140.217 27.032 141.028L25.8333 140.336C24.4288 139.525 23.7266 137.805 23.7266 135.679L24.9253 136.372Z" fill="white" stroke="black" stroke-width="0.752033"/>
<path d="M24.9253 136.371C24.9253 131.784 28.1456 126.207 32.118 123.913L30.9193 123.221C26.9468 125.515 23.7266 131.092 23.7266 135.679L24.9253 136.371Z" fill="white" stroke="black" stroke-width="0.752033"/>
<path d="M37.2067 123.411C35.8022 122.6 33.9614 122.852 32.1207 123.915L30.9219 123.223C32.7626 122.16 34.6034 121.908 36.0079 122.719L37.2067 123.411Z" fill="white" stroke="black" stroke-width="0.752033"/>
<circle cx="8.30542" cy="8.30542" r="8.30542" transform="matrix(0.866025 -0.5 0 1 24.9258 165.014)" fill="white" stroke="black" stroke-width="0.752033"/>
<path d="M24.9253 173.32C24.9253 168.733 28.1456 163.156 32.118 160.862L30.9193 160.17C26.9468 162.464 23.7266 168.041 23.7266 172.628L24.9253 173.32Z" fill="white" stroke="black" stroke-width="0.752033"/>
<path d="M37.2067 160.36C35.8022 159.549 33.9614 159.801 32.1207 160.864L30.9219 160.172C32.7626 159.109 34.6034 158.857 36.0079 159.668L37.2067 160.36Z" fill="white" stroke="black" stroke-width="0.752033"/>
</g>
<path d="M5.26172 162.949C5.26172 159.627 7.59442 155.586 10.472 153.925L53.3328 129.179C56.2103 127.518 58.543 128.865 58.543 132.187V163.222C58.543 166.544 56.2103 170.585 53.3328 172.246L10.472 196.992C7.59442 198.653 5.26172 197.306 5.26172 193.984V162.949Z" fill="white" stroke="#363636" stroke-width="0.752033"/>
<rect width="4.92191" height="33.2229" transform="matrix(0.866025 0.5 0 1 1 159.394)" fill="white" stroke="#363636" stroke-width="0.752033"/>
<rect width="51.6801" height="4.92191" transform="matrix(0.866025 -0.5 0.866025 0.5 5.26172 152.011)" fill="white" stroke="#363636" stroke-width="0.752033"/>
<path d="M5.2625 195.078C5.2625 196.338 5.67866 197.357 6.51096 197.837L2.24846 195.376C1.41615 194.896 1 193.877 1 192.617L5.2625 195.078Z" fill="white" stroke="#363636" stroke-width="0.752033"/>
<path d="M5.2625 161.855C5.2625 159.137 7.17089 155.831 9.52501 154.472L5.2625 152.011C2.90839 153.37 1 156.676 1 159.394L5.2625 161.855Z" fill="white" stroke="#363636" stroke-width="0.752033"/>
<path d="M57.2961 128.334C56.4638 127.854 55.3729 128.003 54.282 128.633L50.0195 126.172C51.1104 125.542 52.2013 125.393 53.0336 125.873L57.2961 128.334Z" fill="white" stroke="#363636" stroke-width="0.752033"/>
<path d="M25.7695 168.303C25.7695 165.125 27.9857 161.236 30.7194 159.616L54.0007 145.819C56.7344 144.199 58.9505 145.462 58.9505 148.64V152.863C58.9505 156.04 56.7344 159.93 54.0007 161.55L30.7194 175.346C27.9857 176.966 25.7695 175.703 25.7695 172.525V168.303Z" fill="white" stroke="#363636" stroke-width="0.719212"/>
<rect width="2.5713" height="5.24339" transform="matrix(0.860293 0.509801 0 1 23.5547 166.491)" fill="white" stroke="#363636" stroke-width="0.719212"/>
<rect width="28.2843" height="2.5713" transform="matrix(0.860293 -0.509801 0.860293 0.509801 27.9844 158.623)" fill="white" stroke="#363636" stroke-width="0.719212"/>
<path d="M25.7668 173.041C25.7668 174.383 26.1987 175.469 27.0626 175.981L24.8505 174.67C23.9866 174.158 23.5547 173.072 23.5547 171.73L25.7668 173.041Z" fill="white" stroke="#363636" stroke-width="0.719212"/>
<path d="M25.7668 167.799C25.7668 164.903 27.7475 161.382 30.1909 159.934L27.9788 158.623C25.5354 160.071 23.5547 163.592 23.5547 166.488L25.7668 167.799Z" fill="white" stroke="#363636" stroke-width="0.719212"/>
<path d="M57.6607 145.196C56.7968 144.684 55.6646 144.843 54.5324 145.514L52.3203 144.203C53.4525 143.533 54.5848 143.374 55.4486 143.885L57.6607 145.196Z" fill="white" stroke="#363636" stroke-width="0.719212"/>
<ellipse cx="5.14259" cy="5.24339" rx="5.14259" ry="5.24339" transform="matrix(0.860293 -0.509801 0 1 28.9648 165.837)" fill="white" stroke="#363636" stroke-width="0.719212"/>
<path d="M28.9621 171.084C28.9621 172.426 29.394 173.512 30.2579 174.024L28.0458 172.713C27.1819 172.201 26.75 171.115 26.75 169.773L28.9621 171.084Z" fill="white" stroke="#363636" stroke-width="0.719212"/>
<path d="M28.9621 171.084C28.9621 168.188 30.9428 164.667 33.3862 163.219L31.1741 161.908C28.7308 163.356 26.75 166.877 26.75 169.773L28.9621 171.084Z" fill="white" stroke="#363636" stroke-width="0.719212"/>
<path d="M36.5162 162.898C35.6523 162.387 34.5201 162.546 33.3878 163.216L31.1758 161.906C32.308 161.235 33.4403 161.076 34.3041 161.588L36.5162 162.898Z" fill="white" stroke="#363636" stroke-width="0.719212"/>
<path d="M5.26172 42.9494C5.26172 39.6267 7.59442 35.5863 10.472 33.925L53.3328 9.17927C56.2103 7.51793 58.543 8.86471 58.543 12.1874V43.2216C58.543 46.5443 56.2103 50.5847 53.3328 52.246L10.472 76.9917C7.59442 78.6531 5.26172 77.3063 5.26172 73.9836V42.9494Z" fill="white" stroke="#363636" stroke-width="0.752033"/>
<rect width="4.92191" height="33.2229" transform="matrix(0.866025 0.5 0 1 1 39.394)" fill="white" stroke="#363636" stroke-width="0.752033"/>
<rect width="51.6801" height="4.92191" transform="matrix(0.866025 -0.5 0.866025 0.5 5.26172 32.011)" fill="white" stroke="#363636" stroke-width="0.752033"/>
<path d="M5.2625 75.0779C5.2625 76.3375 5.67866 77.3569 6.51096 77.8374L2.24846 75.3765C1.41615 74.8959 1 73.8766 1 72.6169L5.2625 75.0779Z" fill="white" stroke="#363636" stroke-width="0.752033"/>
<path d="M5.2625 41.8548C5.2625 39.1365 7.17089 35.8311 9.52501 34.4719L5.2625 32.011C2.90839 33.3701 1 36.6756 1 39.3939L5.2625 41.8548Z" fill="white" stroke="#363636" stroke-width="0.752033"/>
<path d="M57.2961 8.3342C56.4638 7.85366 55.3729 8.00295 54.282 8.63276L50.0195 6.1718C51.1104 5.54199 52.2013 5.39271 53.0336 5.87324L57.2961 8.3342Z" fill="white" stroke="#363636" stroke-width="0.752033"/>
<path d="M25.7695 48.3025C25.7695 45.1248 27.9857 41.2356 30.7194 39.6156L54.0007 25.8193C56.7344 24.1994 58.9505 25.4621 58.9505 28.6398V32.8626C58.9505 36.0403 56.7344 39.9295 54.0007 41.5495L30.7194 55.3458C27.9857 56.9658 25.7695 55.703 25.7695 52.5253V48.3025Z" fill="white" stroke="#363636" stroke-width="0.719212"/>
<rect width="2.5713" height="5.24339" transform="matrix(0.860293 0.509801 0 1 23.5547 46.4915)" fill="white" stroke="#363636" stroke-width="0.719212"/>
<rect width="28.2843" height="2.5713" transform="matrix(0.860293 -0.509801 0.860293 0.509801 27.9844 38.623)" fill="white" stroke="#363636" stroke-width="0.719212"/>
<path d="M25.7668 53.0411C25.7668 54.383 26.1987 55.4689 27.0626 55.9808L24.8505 54.67C23.9866 54.1581 23.5547 53.0721 23.5547 51.7302L25.7668 53.0411Z" fill="white" stroke="#363636" stroke-width="0.719212"/>
<path d="M25.7668 47.799C25.7668 44.9031 27.7475 41.3818 30.1909 39.9339L27.9788 38.623C25.5354 40.071 23.5547 43.5923 23.5547 46.4881L25.7668 47.799Z" fill="white" stroke="#363636" stroke-width="0.719212"/>
<path d="M57.6607 25.1963C56.7968 24.6844 55.6646 24.8434 54.5324 25.5143L52.3203 24.2035C53.4525 23.5325 54.5848 23.3735 55.4486 23.8854L57.6607 25.1963Z" fill="white" stroke="#363636" stroke-width="0.719212"/>
<ellipse cx="5.14259" cy="5.24339" rx="5.14259" ry="5.24339" transform="matrix(0.860293 -0.509801 0 1 28.9648 45.8372)" fill="white" stroke="#363636" stroke-width="0.719212"/>
<path d="M28.9621 51.0838C28.9621 52.4257 29.394 53.5116 30.2579 54.0236L28.0458 52.7127C27.1819 52.2008 26.75 51.1149 26.75 49.7729L28.9621 51.0838Z" fill="white" stroke="#363636" stroke-width="0.719212"/>
<path d="M28.9621 51.0839C28.9621 48.1881 30.9428 44.6667 33.3862 43.2188L31.1741 41.908C28.7308 43.3559 26.75 46.8772 26.75 49.773L28.9621 51.0839Z" fill="white" stroke="#363636" stroke-width="0.719212"/>
<path d="M36.5162 42.8984C35.6523 42.3865 34.5201 42.5455 33.3878 43.2165L31.1758 41.9056C32.308 41.2347 33.4403 41.0757 34.3041 41.5876L36.5162 42.8984Z" fill="white" stroke="#363636" stroke-width="0.719212"/>
<path fill-rule="evenodd" clip-rule="evenodd" d="M100 76C86.74 76 76 86.74 76 100C76 113.26 86.74 124 100 124C113.26 124 124 113.26 124 100C124 86.74 113.26 76 100 76ZM79 100C79 88.39 88.39 79 100 79C111.61 79 121 88.39 121 100C121 111.61 111.61 121 100 121C88.39 121 79 111.61 79 100Z" fill="#E51D25"/>
<path d="M100.021 101.934L90.3603 111.595C90.0734 111.882 89.756 112.016 89.4082 111.998C89.0603 111.98 88.743 111.829 88.4561 111.544C88.1692 111.259 88.0258 110.932 88.0258 110.565C88.0258 110.201 88.1692 109.876 88.4561 109.589L98.0657 99.979L88.405 90.3856C88.1181 90.0987 87.9837 89.7724 88.0016 89.4066C88.0195 89.0408 88.171 88.7154 88.4561 88.4303C88.7412 88.1452 89.0675 88.0018 89.4351 88C89.7991 88 90.1245 88.1434 90.4114 88.4303L100.021 98.091L109.614 88.4303C109.901 88.1434 110.219 88 110.566 88C110.914 88 111.232 88.1434 111.519 88.4303C111.816 88.7262 111.965 89.0543 111.965 89.4147C111.965 89.7751 111.816 90.0978 111.519 90.3829L101.909 99.979L111.57 109.64C111.857 109.927 112 110.244 112 110.592C112 110.94 111.857 111.257 111.57 111.544C111.274 111.842 110.946 111.99 110.585 111.99C110.225 111.99 109.902 111.842 109.617 111.544L100.021 101.934Z" fill="#E51D25"/>
<defs>
<clipPath id="clip0_3786_79919">
<rect width="51.1382" height="120.325" fill="white" transform="translate(5.67969 45.8623)"/>
</clipPath>
</defs>
</svg>

<svg xmlns="http://www.w3.org/2000/svg" fill="none" viewBox="0 0 125 200"><g fill="#fff" stroke="#000" stroke-width=".752" clip-path="url(#a)"><circle cx="8.305" cy="8.305" r="8.305" transform="matrix(.866 -.5 0 1 24.926 54.168)"/><path d="M24.925 62.474c0 2.126.703 3.846 2.107 4.657l-1.199-.692c-1.404-.811-2.106-2.531-2.106-4.657l1.198.692ZM24.925 62.474c0-4.587 3.22-10.165 7.193-12.458l-1.199-.692c-3.972 2.293-7.192 7.87-7.192 12.458l1.198.692ZM37.207 49.513c-1.405-.81-3.246-.558-5.086.504l-1.2-.692c1.842-1.063 3.682-1.315 5.087-.504l1.199.692Z"/><circle cx="8.305" cy="8.305" r="8.305" transform="matrix(.866 -.5 0 1 24.926 91.117)"/><path d="M24.925 99.423c0 2.125.703 3.845 2.107 4.656l-1.199-.692c-1.404-.811-2.106-2.531-2.106-4.656l1.198.692ZM24.925 99.422c0-4.587 3.22-10.164 7.193-12.458l-1.199-.692c-3.972 2.294-7.192 7.871-7.192 12.458l1.198.692Z"/><path d="M37.207 86.462c-1.405-.81-3.246-.559-5.086.504l-1.2-.692c1.842-1.063 3.682-1.315 5.087-.504l1.199.692Z"/><circle cx="8.305" cy="8.305" r="8.305" transform="matrix(.866 -.5 0 1 24.926 128.065)"/><path d="M24.925 136.372c0 2.125.703 3.845 2.107 4.656l-1.199-.692c-1.404-.811-2.106-2.531-2.106-4.657l1.198.693Z"/><path d="M24.925 136.371c0-4.587 3.22-10.164 7.193-12.458l-1.199-.692c-3.972 2.294-7.192 7.871-7.192 12.458l1.198.692Z"/><path d="M37.207 123.411c-1.405-.811-3.246-.559-5.086.504l-1.2-.692c1.842-1.063 3.682-1.315 5.087-.504l1.199.692Z"/><circle cx="8.305" cy="8.305" r="8.305" transform="matrix(.866 -.5 0 1 24.926 165.014)"/><path d="M24.925 173.32c0-4.587 3.22-10.164 7.193-12.458l-1.199-.692c-3.972 2.294-7.192 7.871-7.192 12.458l1.198.692Z"/><path d="M37.207 160.36c-1.405-.811-3.246-.559-5.086.504l-1.2-.692c1.842-1.063 3.682-1.315 5.087-.504l1.199.692Z"/></g><path fill="#fff" stroke="#363636" stroke-width=".752" d="M5.262 162.949c0-3.322 2.332-7.363 5.21-9.024l42.86-24.746c2.878-1.661 5.211-.314 5.211 3.008v31.035c0 3.322-2.333 7.363-5.21 9.024l-42.861 24.746c-2.878 1.661-5.21.314-5.21-3.008v-31.035Z"/><path fill="#fff" stroke="#363636" stroke-width=".752" d="M0 0h4.922v33.223H0z" transform="matrix(.866 .5 0 1 1 159.394)"/><path fill="#fff" stroke="#363636" stroke-width=".752" d="M0 0h51.68v4.922H0z" transform="matrix(.866 -.5 .866 .5 5.262 152.011)"/><path fill="#fff" stroke="#363636" stroke-width=".752" d="M5.263 195.078c0 1.26.416 2.279 1.248 2.759l-4.263-2.461c-.832-.48-1.248-1.499-1.248-2.759l4.263 2.461ZM5.263 161.855c0-2.718 1.908-6.024 4.262-7.383l-4.263-2.461C2.909 153.37 1 156.676 1 159.394l4.263 2.461ZM57.296 128.334c-.832-.48-1.923-.331-3.014.299l-4.262-2.461c1.09-.63 2.181-.779 3.014-.299l4.262 2.461Z"/><path fill="#fff" stroke="#363636" stroke-width=".719" d="M25.77 168.303c0-3.178 2.216-7.067 4.95-8.687L54 145.819c2.734-1.62 4.95-.357 4.95 2.821v4.223c0 3.177-2.216 7.067-4.95 8.687l-23.28 13.796c-2.734 1.62-4.95.357-4.95-2.821v-4.222Z"/><path fill="#fff" stroke="#363636" stroke-width=".719" d="M0 0h2.571v5.243H0z" transform="matrix(.8603 .5098 0 1 23.555 166.491)"/><path fill="#fff" stroke="#363636" stroke-width=".719" d="M0 0h28.284v2.571H0z" transform="scale(1.2166 .721) rotate(-45 277.081 82.242)"/><path fill="#fff" stroke="#363636" stroke-width=".719" d="M25.767 173.041c0 1.342.432 2.428 1.296 2.94l-2.212-1.311c-.864-.512-1.296-1.598-1.296-2.94l2.212 1.311ZM25.767 167.799c0-2.896 1.98-6.417 4.424-7.865l-2.212-1.311c-2.444 1.448-4.424 4.969-4.424 7.865l2.212 1.311ZM57.66 145.196c-.863-.512-1.995-.353-3.128.318l-2.212-1.311c1.133-.67 2.265-.829 3.129-.318l2.212 1.311Z"/><ellipse cx="5.143" cy="5.243" fill="#fff" stroke="#363636" stroke-width=".719" rx="5.143" ry="5.243" transform="matrix(.8603 -.5098 0 1 28.965 165.837)"/><path fill="#fff" stroke="#363636" stroke-width=".719" d="M28.962 171.084c0 1.342.432 2.428 1.296 2.94l-2.212-1.311c-.864-.512-1.296-1.598-1.296-2.94l2.212 1.311ZM28.962 171.084c0-2.896 1.98-6.417 4.424-7.865l-2.212-1.311c-2.443 1.448-4.424 4.969-4.424 7.865l2.212 1.311ZM36.516 162.898c-.864-.511-1.996-.352-3.128.318l-2.212-1.31c1.132-.671 2.264-.83 3.128-.318l2.212 1.31Z"/><path fill="#fff" stroke="#363636" stroke-width=".752" d="M5.262 42.95c0-3.323 2.332-7.364 5.21-9.025l42.86-24.746c2.878-1.661 5.211-.314 5.211 3.008v31.035c0 3.322-2.333 7.363-5.21 9.024L10.472 76.992c-2.878 1.661-5.21.314-5.21-3.008V42.949Z"/><path fill="#fff" stroke="#363636" stroke-width=".752" d="M0 0h4.922v33.223H0z" transform="matrix(.866 .5 0 1 1 39.394)"/><path fill="#fff" stroke="#363636" stroke-width=".752" d="M0 0h51.68v4.922H0z" transform="matrix(.866 -.5 .866 .5 5.262 32.011)"/><path fill="#fff" stroke="#363636" stroke-width=".752" d="M5.263 75.078c0 1.26.416 2.279 1.248 2.76l-4.263-2.462c-.832-.48-1.248-1.5-1.248-2.76l4.263 2.462ZM5.263 41.855c0-2.718 1.908-6.024 4.262-7.383L5.262 32.01C2.909 33.371 1 36.676 1 39.394l4.263 2.46ZM57.296 8.334c-.832-.48-1.923-.331-3.014.299L50.02 6.172c1.09-.63 2.181-.78 3.014-.299l4.262 2.461Z"/><path fill="#fff" stroke="#363636" stroke-width=".719" d="M25.77 48.303c0-3.178 2.216-7.067 4.95-8.687L54 25.819c2.734-1.62 4.95-.357 4.95 2.82v4.224c0 3.177-2.216 7.066-4.95 8.687L30.72 55.346c-2.734 1.62-4.95.357-4.95-2.82v-4.224Z"/><path fill="#fff" stroke="#363636" stroke-width=".719" d="M0 0h2.571v5.243H0z" transform="matrix(.8603 .5098 0 1 23.555 46.492)"/><path fill="#fff" stroke="#363636" stroke-width=".719" d="M0 0h28.284v2.571H0z" transform="scale(1.2166 .721) rotate(-45 76.167 -.98)"/><path fill="#fff" stroke="#363636" stroke-width=".719" d="M25.767 53.041c0 1.342.432 2.428 1.296 2.94L24.85 54.67c-.864-.512-1.296-1.598-1.296-2.94l2.212 1.311ZM25.767 47.799c0-2.896 1.98-6.417 4.424-7.865l-2.212-1.311c-2.444 1.448-4.424 4.97-4.424 7.865l2.212 1.311ZM57.66 25.196c-.863-.512-1.995-.353-3.128.318l-2.212-1.31c1.133-.672 2.265-.83 3.129-.319l2.212 1.311Z"/><ellipse cx="5.143" cy="5.243" fill="#fff" stroke="#363636" stroke-width=".719" rx="5.143" ry="5.243" transform="matrix(.8603 -.5098 0 1 28.965 45.837)"/><path fill="#fff" stroke="#363636" stroke-width=".719" d="M28.962 51.084c0 1.342.432 2.428 1.296 2.94l-2.212-1.311c-.864-.512-1.296-1.598-1.296-2.94l2.212 1.31Z"/><path fill="#fff" stroke="#363636" stroke-width=".719" d="M28.962 51.084c0-2.896 1.98-6.417 4.424-7.865l-2.212-1.311c-2.443 1.448-4.424 4.97-4.424 7.865l2.212 1.31ZM36.516 42.898c-.864-.512-1.996-.353-3.128.319l-2.212-1.311c1.132-.671 2.264-.83 3.128-.318l2.212 1.31Z"/><path fill="#E51D25" fill-rule="evenodd" d="M100 76c-13.26 0-24 10.74-24 24s10.74 24 24 24 24-10.74 24-24-10.74-24-24-24Zm-21 24c0-11.61 9.39-21 21-21s21 9.39 21 21-9.39 21-21 21-21-9.39-21-21Z" clip-rule="evenodd"/><path fill="#E51D25" d="m100.021 101.934-9.66 9.661c-.288.287-.605.421-.953.403-.348-.018-.665-.169-.952-.454-.287-.285-.43-.612-.43-.979 0-.364.143-.689.43-.976l9.61-9.61-9.661-9.593c-.287-.287-.421-.614-.403-.98.017-.365.169-.69.454-.976.285-.285.611-.428.98-.43.363 0 .688.143.975.43l9.61 9.661 9.593-9.66c.287-.288.605-.431.952-.431.348 0 .666.143.953.43.297.296.446.624.446.985 0 .36-.149.683-.446.968l-9.61 9.596 9.661 9.661c.287.287.43.604.43.952s-.143.665-.43.952c-.296.298-.624.446-.985.446-.36 0-.683-.148-.968-.446l-9.596-9.61Z"/><defs><clipPath id="a"><path fill="#fff" d="M5.68 45.862h51.138v120.325H5.68z"/></clipPath></defs></svg>
